modules/hawcons-filled/icons/icon-22-cloud-remove.svg

<?xml version="1.0" encoding="UTF-8" standalone="no"?>
<svg width="32px" height="32px" viewBox="0 0 32 32" version="1.1" xmlns="http://www.w3.org/2000/svg" xmlns:xlink="http://www.w3.org/1999/xlink" xmlns:sketch="http://www.bohemiancoding.com/sketch/ns">
    <!-- Generator: Sketch 3.0.3 (7891) - http://www.bohemiancoding.com/sketch -->
    <title>icon 22 cloud remove</title>
    <desc>Created with Sketch.</desc>
    <defs></defs>
    <g id="Page-1" stroke="none" stroke-width="1" fill="none" fill-rule="evenodd" sketch:type="MSPage">
        <g id="icon-22-cloud-remove" sketch:type="MSArtboardGroup" fill="#929292">
            <path d="M26.9993494,14.4145295 C28.7676457,15.1852931 30,16.9483386 30,19 C30,21.7558048 27.7616745,24 25.0005601,24 L7.99943992,24 C5.23249418,24 3,21.7614237 3,19 C3,16.9491311 4.23965876,15.1816085 6.01189661,14.4115388 L6.01189661,14.4115388 C6.00400207,14.275367 6,14.1381509 6,14 C6,10.1340066 9.13400656,7 13,7 C15.2979469,7 17.3372745,8.10728055 18.6135384,9.81739735 C19.4525719,9.29909701 20.441357,9 21.5,9 C24.5090248,9 26.9536744,11.4163763 26.9993494,14.4145295 L26.9993494,14.4145295 L26.9993494,14.4145295 Z M13.5034227,17 C13.22539,17 13,17.2319336 13,17.5 C13,17.7761424 13.2329025,18 13.5034227,18 L19.4965773,18 C19.77461,18 20,17.7680664 20,17.5 C20,17.2238576 19.7670975,17 19.4965773,17 L13.5034227,17 L13.5034227,17 Z" id="cloud-remove" sketch:type="MSShapeGroup"></path>
        </g>
    </g>
</svg>

<svg width="32" height="32" xmlns="http://www.w3.org/2000/svg"><path d="M27 14.415c1.768.77 3 2.533 3 4.585 0 2.756-2.238 5-5 5H8c-2.768 0-5-2.239-5-5 0-2.05 1.24-3.818 3.012-4.588a7 7 0 0 1 12.602-4.594A5.5 5.5 0 0 1 27 14.414zM13.502 17a.507.507 0 0 0-.503.5c0 .276.233.5.503.5h5.994a.507.507 0 0 0 .503-.5c0-.276-.233-.5-.503-.5h-5.994z" fill="#929292" fill-rule="evenodd"/></svg>
